<?xml version="1.0" encoding="UTF-8"?>
<map version="1.10" tiledversion="1.12.2" orientation="orthogonal" renderorder="right-down" width="15" height="15" tilewidth="64" tileheight="64" infinite="0" nextlayerid="2" nextobjectid="1">
 <tileset firstgid="1" source="terrain_tileset.tsx"/>
 <tileset firstgid="41" source="tank_sprites.tsx"/>
 <tileset firstgid="105" source="corner.tsx"/>
 <layer id="1" name="background" width="15" height="15">
  <data encoding="csv">
21,21,21,21,21,21,21,22,21,21,21,21,21,21,21,
31,34,23,23,23,23,23,33,23,23,23,23,23,35,31,
21,22,3221225577,18,18,18,18,38,18,18,18,18,1610612841,22,21,
31,22,9,14,3,15,11,2,11,14,3,15,8,22,31,
21,22,9,2,11,2,11,2,11,2,11,2,8,22,21,
31,22,9,16,3,12,3,13,3,12,3,17,8,22,31,
21,22,9,11,11,2,11,2,11,2,11,11,8,22,21,
23,33,29,3,3,13,3,13,3,13,3,3,30,33,23,
21,22,9,11,11,2,11,2,11,2,11,11,8,22,21,
31,22,9,14,3,12,3,13,3,12,3,15,8,22,31,
21,22,9,2,11,2,11,2,11,2,11,2,8,22,21,
31,22,9,16,3,17,11,2,11,16,3,17,8,22,31,
21,22,2684354665,19,19,19,19,20,19,19,19,19,105,22,21,
31,36,23,23,23,23,23,33,23,23,23,23,23,37,31,
21,21,21,21,21,21,21,22,21,21,21,21,21,21,21
</data>
 </layer>
</map>
